X: 1
T:Hills of Glenorchy, The
R:jig
C:Trad.-Buddy MacMaster, Ashley MacIsaac, Donny LeBlanc, Theresa & Donald
C:cLellan
O:Ireland
M:6/8
L:1/8
K:G
A|EDE A,B,A,|(EDE) (G2E )|{FE}DB,D G,A,G,|(B,A,B,) (DG F)|!
EDE A,B,A,|(EDE)A, B,A,|(EDE) (G2A )|GEG DB,G,|1 . (A,B,A,)A,2:|2 .A,B,A
, A,2|!
|:e|aba {b}age|{b}aga {a} (b2a)|gag {a}ged|gdg {g} (b2g)|1 .aba {b}age|!
{b}aga {a} (b2a)|geg dBG|ABA A2:|2 .c'c'c' bbb|aaa eed|!
ege dBG|ABA A2::a|ede ABA|!
ede  (g2d)|BAB GDG|(BAB)d2g|ede ABA|!
(ede)g2a|geg dBG|ABA A2:|!
|:e|aba {b}age|{b}aga {a} (b2a)|gag {a}ged|gdg {g} (b2g)|1 .aba {b}age|!
{b}aga {a} (b2a)|geg dBG|ABA A2:|2 .c'c'c' bbb|aaa eed|!
ege dBG|ABA A2:||
